public/avatar/item0/76.svg

<svg xmlns:xlink="http://www.w3.org/1999/xlink" height="58.65" width="49.15" xmlns="http://www.w3.org/2000/svg"><use height="23.6" transform="translate(7.05 12.45)" width="33.9" xlink:href="#a"/><defs><use height="23.6" width="33.9" xlink:href="#b" id="a"/><g id="b"><path d="m13 9.8-1.1-1.5q-.65-.6-1.55-.65h-5.2l-5.05.6h-1.7l-3.4-.4-4.9.1-1.6.35q-.9.2-1.5.9.1-1.45.65-2.65h24.5l.15.35q.6 1.3.7 2.9m-26 .45 1.6.65-.1-.25q-.35-.95.55-1.5.6-.5 1.35-.5 2.65.3 1.85 2.6l-.2.3h1.6L-6.4 11l.25.35q.35.3.65 0 .75-.75-.05-1.2l-.45.2-.3.2q.2-.6.8-.65 1.65.05 1.4 1.35 2.1-.55 4-1.75l1.6.7.45-.55q.4-.45.95-.45 1.6.5.85 1.7l5.95.5 3.3-1.05q0 1.7-.6 3.15l-2.6.5H6.6l-3.2-.5-3.45-1-.05.05-3.45.95-3.45.35-3.15-.55q-1.55-.45-2.65-1.35l-.2-1.7m15.25-.5q-.6.3-.15.85.3.45.7.1.85-.7-.05-1.15l-.5.2m-.6 5.75 3.2-.2 3.15.3q1.15.2 2 .85-1.6 1.2-3.65 1.25-2.75-.05-4.7-2.2m-13.05-4.6q.15.65 1.4.85.65.05 1-.35 1.35-1.65-.8-2.3l-.25.05q-.85.05-1.2.75l-.15 1m9.6 4.4q-1.9 2-4.55 2-2.05 0-3.7-1.2l2.95-.8 3.4-.3 1.9.3" fill="#f90" fill-rule="evenodd" transform="translate(16.95 5.9)"/><path d="M-13 9.2q.6-.7 1.5-.9l1.6-.35 4.9-.1 3.4.4H.1l5.05-.6h5.2q.9.05 1.55.65L13 9.8v.55L9.7 11.4l-5.95-.5q.75-1.2-.85-1.7-.55 0-.95.45l-.45.55-1.6-.7q-1.9 1.2-4 1.75.25-1.3-1.4-1.35-.6.05-.8.65l-.1.45.05.55h-1.6l.2-.3q.8-2.3-1.85-2.6-.75 0-1.35.5-.9.55-.55 1.5l.1.25-1.6-.65V9.2" fill="#f60" fill-rule="evenodd" transform="translate(16.95 5.9)"/><path d="m-6.4 11 .1-.45.3-.2.45-.2q.8.45.05 1.2-.3.3-.65 0L-6.4 11m8.65-1.25.5-.2q.9.45.05 1.15-.4.35-.7-.1-.45-.55.15-.85M-11.4 10.9l.15-1q.35-.7 1.2-.75l.25-.05q2.15.65.8 2.3-.35.4-1 .35-1.25-.2-1.4-.85" fill="#fff" fill-rule="evenodd" transform="translate(16.95 5.9)"/><path d="m-.05 12.5 3.45 1 3.2.5h3.2l2.6-.5-1.35 2-1.05.95q-.85-.65-2-.85l-3.15-.3-3.2.2H1.6q-1.2-1.35-1.65-3m-.05.05q-.5 1.4-1.55 2.55l-.15.2-1.9-.3-3.4.3-2.95.8-1.05-1q-1.25-1.4-1.7-3.15 1.1.9 2.65 1.35l3.15.55 3.45-.35 3.45-.95" fill="#ff0" fill-rule="evenodd" transform="translate(16.95 5.9)"/><path d="M9.55-5.35 9.3-5.8h.35q1.55.05 2.3 2.1l-.45.45q-.7-1.85-1.95-2.1" fill="#cedff0" fill-rule="evenodd" transform="translate(16.95 5.9)"/><path d="M9.15-5.4H8.8q-1.2.05-2.7 1.25Q7.9-5.7 9.3-5.8l.25.45-.4-.05M5.4 6.55l.45-1.25-.4 1.3H5.4v-.05" fill="#fff" fill-rule="evenodd" transform="translate(16.95 5.9)"/><path d="M8.8-5.4h.35l.4.05q.95 2 .25 3.85l-.55.3-2.6 2.75Q5.45 2.95 5.3 4.8l-.1.65.2 1.1v.05l-.15.5-.05-.05q-.4 0-.55.35l-1.75.5q-.55.2-2.6-.85l.75-3.1Q2.3.3 4.85-2.7L6.1-4.15q1.5-1.2 2.7-1.25M5.85 5.3Q6.4 3.2 8.05.95L9.8-1.5l1.7-1.75.45-.45q1.15-.65 2.2-.6l.4.05q.05 3.75-2 7-2.1 3.25-.9 6.15v.05l-.25.75-2.6-1.75q-1.55-1-3.35-1.35l.4-1.3" fill="#ff0" fill-rule="evenodd" transform="translate(16.95 5.9)"/><path d="m5.4 6.55-.2-1.1.1-.65q.15-1.85 1.35-3.25l2.6-2.75.55-.3L8.05.95Q6.4 3.2 5.85 5.3L5.4 6.55M9.8-1.5q.7-1.85-.25-3.85 1.25.25 1.95 2.1L9.8-1.5m4.75-2.75q1.65.35 1.9 3 .2 2.95-1.9 5-2.15 1.95-2.9 5.15-1.2-2.9.9-6.15 2.05-3.25 2-7" fill="#f90" fill-rule="evenodd" transform="translate(16.95 5.9)"/><path d="m9.15-5.4.4.05q1.25.25 1.95 2.1l.45-.45q1.15-.65 2.2-.6m-8.05.15q1.5-1.2 2.7-1.25M5.85 5.3Q6.4 3.2 8.05.95L9.8-1.5l1.7-1.75m3.05-1q1.65.35 1.9 3 .2 2.95-1.9 5-2.15 1.95-2.9 5.15m-6.2-2.3-.2.5M.3 7.05l.75-3.1Q2.3.3 4.85-2.7L6.1-4.15m-.7 10.7v.05m.05 0 .4-1.3" fill="none" stroke="#f90" stroke-linecap="round" stroke-linejoin="round" transform="translate(16.95 5.9)"/><path d="M8.8-5.4h.35M5.4 6.55l.45-1.25m8.3-9.6.4.05M11.65 8.9v.05M5.4 6.6l-.15.5" fill="none" stroke="#6c9cac" stroke-linecap="round" stroke-linejoin="round" transform="translate(16.95 5.9)"/><path d="M-14.2-4.1h.1q2.05 0 3.2 1.8L-9.8-1q3.15 2.75 3.75 6.7.7.1.25.75l-.3.2-.4.1-2.7-.1-2.7-.2-.1-.05-.15-.2-.05-.15-1-1-.8-1.55h-.1l-.35-.3-.05-.05-.45-.65-.35-.6q-.95-1.05-.85-2.6.15-1.8 1.25-3 .3-.3.7-.4m5.5-1.3h-.35l-.4.05-.15.35.15-.1q2.75.05 4.5 2.45 1.8 2.5 3.15 5.25l.6 1.8q.7.65.6 1.25l.2.1.1.55-.55.4-.55.1h-.15l-2-.05-1.3-.3-.35-.1-.05.2v.05l.15.5-.65-1.8Q-6.3 3.2-7.95.95l-1.8-2.45-1.7-1.75q.7-1.85 2-2.1l.25-.45q1.4.1 3.2 1.65-1.5-1.2-2.7-1.25m-.45 4.2 1.2 1.3-1.25-1.45-.8-1.05.25.9.6.3m3.4 6.5.5 1.25-.5-1.25" fill="#ff0" fill-rule="evenodd" transform="translate(16.95 5.9)"/><path d="m-14.15-4.3-.4.05M-8.7-5.4h-.35m3.8 12 .15.5m-.15-.55-.5-1.25" fill="none" stroke="#6c9cac" stroke-linecap="round" stroke-linejoin="round" transform="translate(16.95 5.9)"/><path d="M-14.55-4.25q-1.65.35-1.9 3-.2 2.95 1.9 5 2.2 1.95 2.95 5.15m.15-12.15-.45-.45q-1.15-.65-2.25-.6m5.1-1.1-.4.05q-1.3.25-2 2.1l1.7 1.75 1.8 2.45Q-6.3 3.2-5.75 5.3l.65 1.8m4.7-1.35-.45-1.8Q-2.15.3-4.7-2.7L-6-4.15q-1.5-1.2-2.7-1.25m3.45 11.95v.05m4.95-.3.2.75m-.3-1.3.1.55" fill="none" stroke="#f90" stroke-linecap="round" stroke-linejoin="round" transform="translate(16.95 5.9)"/></g></defs></svg>

<?xml version="1.0" encoding="UTF-8" standalone="no"?>
<svg xmlns:xlink="http://www.w3.org/1999/xlink" height="58.65px" width="49.15px" xmlns="http://www.w3.org/2000/svg">
  <g transform="matrix(1.0, 0.0, 0.0, 1.0, 24.1, 18.1)">
    <use height="23.6" transform="matrix(1.0, 0.0, 0.0, 1.0, -17.05, -5.65)" width="33.9" xlink:href="#sprite0"/>
  </g>
  <defs>
    <g id="sprite0" transform="matrix(1.0, 0.0, 0.0, 1.0, 16.95, 5.9)">
      <use height="23.6" transform="matrix(1.0, 0.0, 0.0, 1.0, -16.95, -5.9)" width="33.9" xlink:href="#shape0"/>
    </g>
    <g id="shape0" transform="matrix(1.0, 0.0, 0.0, 1.0, 16.95, 5.9)">
      <path d="M13.0 9.8 L11.9 8.3 Q11.25 7.7 10.35 7.65 L5.15 7.65 0.1 8.25 -1.6 8.25 -5.0 7.85 -9.9 7.95 -11.5 8.3 Q-12.4 8.5 -13.0 9.2 -12.9 7.75 -12.35 6.55 L12.15 6.55 12.3 6.9 Q12.9 8.2 13.0 9.8 M-13.0 10.25 L-11.4 10.9 -11.5 10.65 Q-11.85 9.7 -10.95 9.15 -10.35 8.65 -9.6 8.65 -6.95 8.95 -7.75 11.25 L-7.95 11.55 -6.35 11.55 -6.4 11.0 -6.15 11.35 Q-5.8 11.65 -5.5 11.35 -4.75 10.6 -5.55 10.15 L-6.0 10.35 -6.3 10.55 Q-6.1 9.95 -5.5 9.9 -3.85 9.95 -4.1 11.25 -2.0 10.7 -0.1 9.5 L1.5 10.2 1.95 9.65 Q2.35 9.2 2.9 9.2 4.5 9.7 3.75 10.9 L9.7 11.4 13.0 10.35 Q13.0 12.05 12.4 13.5 L9.8 14.0 6.6 14.0 3.4 13.5 -0.05 12.5 -0.1 12.55 -3.55 13.5 -7.0 13.85 -10.15 13.3 Q-11.7 12.85 -12.8 11.95 L-13.0 10.25 M2.25 9.75 Q1.65 10.05 2.1 10.6 2.4 11.05 2.8 10.7 3.65 10.0 2.75 9.55 L2.25 9.75 M1.65 15.5 L4.85 15.3 8.0 15.6 Q9.15 15.8 10.0 16.45 8.4 17.65 6.35 17.7 3.6 17.65 1.65 15.5 M-11.4 10.9 Q-11.25 11.55 -10.0 11.75 -9.35 11.8 -9.0 11.4 -7.65 9.75 -9.8 9.1 L-10.05 9.15 Q-10.9 9.2 -11.25 9.9 L-11.4 10.9 M-1.8 15.3 Q-3.7 17.3 -6.35 17.3 -8.4 17.3 -10.05 16.1 L-7.1 15.3 -3.7 15.0 -1.8 15.3" fill="#ff9900" fill-rule="evenodd" stroke="none"/>
      <path d="M-13.0 9.2 Q-12.4 8.5 -11.5 8.3 L-9.9 7.95 -5.0 7.85 -1.6 8.25 0.1 8.25 5.15 7.65 10.35 7.65 Q11.25 7.7 11.9 8.3 L13.0 9.8 13.0 10.35 9.7 11.4 3.75 10.9 Q4.5 9.7 2.9 9.2 2.35 9.2 1.95 9.65 L1.5 10.2 -0.1 9.5 Q-2.0 10.7 -4.1 11.25 -3.85 9.95 -5.5 9.9 -6.1 9.95 -6.3 10.55 L-6.4 11.0 -6.35 11.55 -7.95 11.55 -7.75 11.25 Q-6.95 8.95 -9.6 8.65 -10.35 8.65 -10.95 9.15 -11.85 9.7 -11.5 10.65 L-11.4 10.9 -13.0 10.25 -13.0 9.2" fill="#ff6600" fill-rule="evenodd" stroke="none"/>
      <path d="M-6.4 11.0 L-6.3 10.55 -6.0 10.35 -5.55 10.15 Q-4.75 10.6 -5.5 11.35 -5.8 11.65 -6.15 11.35 L-6.4 11.0 M2.25 9.75 L2.75 9.55 Q3.65 10.0 2.8 10.7 2.4 11.05 2.1 10.6 1.65 10.05 2.25 9.75 M-11.4 10.9 L-11.25 9.9 Q-10.9 9.2 -10.05 9.15 L-9.8 9.1 Q-7.65 9.75 -9.0 11.4 -9.35 11.8 -10.0 11.75 -11.25 11.55 -11.4 10.9" fill="#ffffff" fill-rule="evenodd" stroke="none"/>
      <path d="M-0.05 12.5 L3.4 13.5 6.6 14.0 9.8 14.0 12.4 13.5 11.05 15.5 10.0 16.45 Q9.15 15.8 8.0 15.6 L4.85 15.3 1.65 15.5 1.6 15.5 Q0.4 14.15 -0.05 12.5 M-0.1 12.55 Q-0.6 13.95 -1.65 15.1 L-1.8 15.3 -3.7 15.0 -7.1 15.3 -10.05 16.1 -11.1 15.1 Q-12.35 13.7 -12.8 11.95 -11.7 12.85 -10.15 13.3 L-7.0 13.85 -3.55 13.5 -0.1 12.55" fill="#ffff00" fill-rule="evenodd" stroke="none"/>
      <path d="M9.55 -5.35 L9.3 -5.8 9.65 -5.8 Q11.2 -5.75 11.95 -3.7 L11.5 -3.25 Q10.8 -5.1 9.55 -5.35" fill="#cedff0" fill-rule="evenodd" stroke="none"/>
      <path d="M9.15 -5.4 L8.8 -5.4 Q7.6 -5.35 6.1 -4.15 7.9 -5.7 9.3 -5.8 L9.55 -5.35 9.15 -5.4 M5.4 6.55 L5.85 5.3 5.45 6.6 5.4 6.6 5.4 6.55" fill="#ffffff" fill-rule="evenodd" stroke="none"/>
      <path d="M8.8 -5.4 L9.15 -5.4 9.55 -5.35 Q10.5 -3.35 9.8 -1.5 L9.25 -1.2 6.65 1.55 Q5.45 2.95 5.3 4.8 L5.2 5.45 5.4 6.55 5.4 6.6 5.25 7.1 5.2 7.05 Q4.8 7.05 4.65 7.4 L2.9 7.9 Q2.35 8.1 0.3 7.05 L1.05 3.95 Q2.3 0.3 4.85 -2.7 L6.1 -4.15 Q7.6 -5.35 8.8 -5.4 M5.85 5.3 Q6.4 3.2 8.05 0.95 L9.8 -1.5 11.5 -3.25 11.95 -3.7 Q13.1 -4.35 14.15 -4.3 L14.55 -4.25 Q14.6 -0.5 12.55 2.75 10.45 6.0 11.65 8.9 L11.65 8.95 11.4 9.7 8.8 7.95 Q7.25 6.95 5.45 6.6 L5.85 5.3" fill="#ffff00" fill-rule="evenodd" stroke="none"/>
      <path d="M5.4 6.55 L5.2 5.45 5.3 4.8 Q5.45 2.95 6.65 1.55 L9.25 -1.2 9.8 -1.5 8.05 0.95 Q6.4 3.2 5.85 5.3 L5.4 6.55 M9.8 -1.5 Q10.5 -3.35 9.55 -5.35 10.8 -5.1 11.5 -3.25 L9.8 -1.5 M14.55 -4.25 Q16.2 -3.9 16.45 -1.25 16.65 1.7 14.55 3.75 12.4 5.7 11.65 8.9 10.45 6.0 12.55 2.75 14.6 -0.5 14.55 -4.25" fill="#ff9900" fill-rule="evenodd" stroke="none"/>
      <path d="M9.15 -5.4 L9.55 -5.35 Q10.8 -5.1 11.5 -3.25 L11.95 -3.7 Q13.1 -4.35 14.15 -4.3 M6.1 -4.15 Q7.6 -5.35 8.8 -5.4 M5.85 5.3 Q6.4 3.2 8.05 0.95 L9.8 -1.5 11.5 -3.25 M14.55 -4.25 Q16.2 -3.9 16.45 -1.25 16.65 1.7 14.55 3.75 12.4 5.7 11.65 8.9 M5.45 6.6 L5.25 7.1 M0.3 7.05 L1.05 3.95 Q2.3 0.3 4.85 -2.7 L6.1 -4.15 M5.4 6.55 L5.4 6.6 M5.45 6.6 L5.85 5.3" fill="none" stroke="#ff9900" stroke-linecap="round" stroke-linejoin="round" stroke-width="1.0"/>
      <path d="M8.8 -5.4 L9.15 -5.4 M5.4 6.55 L5.85 5.3 M14.15 -4.3 L14.55 -4.25 M11.65 8.9 L11.65 8.95 M5.4 6.6 L5.25 7.1" fill="none" stroke="#6c9cac" stroke-linecap="round" stroke-linejoin="round" stroke-width="1.0"/>
      <path d="M-14.2 -4.1 L-14.1 -4.1 Q-12.05 -4.1 -10.9 -2.3 L-9.8 -1.0 Q-6.65 1.75 -6.05 5.7 -5.35 5.8 -5.8 6.45 L-6.1 6.65 -6.5 6.75 -9.2 6.65 -11.9 6.45 -12.0 6.4 -12.15 6.2 -12.2 6.05 -13.2 5.05 -14.0 3.5 -14.1 3.5 -14.45 3.2 -14.5 3.15 -14.95 2.5 -15.3 1.9 Q-16.25 0.85 -16.15 -0.7 -16.0 -2.5 -14.9 -3.7 -14.6 -4.0 -14.2 -4.1 M-8.7 -5.4 L-9.05 -5.4 -9.45 -5.35 -9.6 -5.0 -9.45 -5.1 Q-6.7 -5.05 -4.95 -2.65 -3.15 -0.15 -1.8 2.6 L-1.2 4.4 Q-0.5 5.05 -0.6 5.65 L-0.4 5.75 -0.3 6.3 -0.85 6.7 -1.4 6.8 -1.55 6.8 -3.55 6.75 -4.85 6.45 -5.2 6.35 -5.25 6.55 -5.25 6.6 -5.1 7.1 -5.75 5.3 Q-6.3 3.2 -7.95 0.95 L-9.75 -1.5 -11.45 -3.25 Q-10.75 -5.1 -9.45 -5.35 L-9.2 -5.8 Q-7.8 -5.7 -6.0 -4.15 -7.5 -5.35 -8.7 -5.4 M-9.15 -1.2 L-7.95 0.1 -9.2 -1.35 -10.0 -2.4 -9.75 -1.5 -9.15 -1.2 M-5.75 5.3 L-5.25 6.55 -5.75 5.3" fill="#ffff00" fill-rule="evenodd" stroke="none"/>
      <path d="M-14.15 -4.3 L-14.55 -4.25 M-8.7 -5.4 L-9.05 -5.4 M-5.25 6.6 L-5.1 7.1 M-5.25 6.55 L-5.75 5.3" fill="none" stroke="#6c9cac" stroke-linecap="round" stroke-linejoin="round" stroke-width="1.0"/>
      <path d="M-14.55 -4.25 Q-16.2 -3.9 -16.45 -1.25 -16.65 1.7 -14.55 3.75 -12.35 5.7 -11.6 8.9 M-11.45 -3.25 L-11.9 -3.7 Q-13.05 -4.35 -14.15 -4.3 M-9.05 -5.4 L-9.45 -5.35 Q-10.75 -5.1 -11.45 -3.25 L-9.75 -1.5 -7.95 0.95 Q-6.3 3.2 -5.75 5.3 L-5.1 7.1 M-0.4 5.75 L-0.85 3.95 Q-2.15 0.3 -4.7 -2.7 L-6.0 -4.15 Q-7.5 -5.35 -8.7 -5.4 M-5.25 6.55 L-5.25 6.6 M-0.3 6.3 L-0.1 7.05 M-0.4 5.75 L-0.3 6.3" fill="none" stroke="#ff9900" stroke-linecap="round" stroke-linejoin="round" stroke-width="1.0"/>
    </g>
  </defs>
</svg>
